X:381
T:untitled in ms. EHO.381
A:England; East Yorkshire
M:2/4
L:1/8
Q:1/4=100
B:Edward Holmes MS, c1846, Beverley, Yorkshire.
C:
O:
Z:Village Music Project 2018, Jake Wade. Beverley, East Yorks
K:F
(a/g/) | fF B/A/G/F/ | EGG (a/g/) | fFAc | fe/f/ g/f/e/d/ |
fF B/A/G/F/ | EGG (F/E/) | DE/F/ CD/E/ | EFF :|
|: c | !turn!f>gaf | g/f/e/d/ cc | f/>e/f/g/ a/g/a/b/ | (a2g)c |
f/>e/f/g/ f/g/a/b/ | a/g/f/e/ d/e/f/a/ | g/f/e/d/ e/f/g/e/ | f>gf :|

